Project/Assets/Textures/Lut/lut_cool.cube
TITLE "Cooler Blue LUT"
LUT_3D_SIZE 5
0.000000 0.000000 0.000000
0.286638 0.000000 0.286638
0.400000 0.000000 0.400000
0.400000 0.000000 0.400000
0.400000 0.000000 0.400000
0.028135 0.450166 0.000000
0.343133 0.482234 0.312993
0.430079 0.481258 0.400000
0.435036 0.560568 0.400000
0.441950 0.677803 0.558425
0.050000 0.800000 0.000000
0.388470 0.800000 0.338470
0.450000 0.800000 0.400000
0.450000 0.800000 0.400000
0.450000 0.802303 0.455280
0.110133 0.802014 0.108473
0.450000 0.800982 0.423566
0.450000 0.800000 0.400000
0.450000 0.800000 0.400000
0.450000 0.800000 0.400000
0.199716 0.811435 0.424158
0.450000 0.806571 0.557693
0.450000 0.800890 0.421369
0.450000 0.800000 0.400000
0.450000 0.800000 0.400000
0.000000 0.030606 0.734539
0.281639 0.026451 0.916457
0.400000 0.020041 0.880989
0.400000 0.021168 0.908034
0.400000 0.027501 1.000000
0.029040 0.489805 0.603872
0.357228 0.530988 0.989004
0.431355 0.529266 1.000000
0.436403 0.615158 1.000000
0.443282 0.732139 1.000000
0.050000 0.824387 0.585287
0.401067 0.826423 0.985207
0.450000 0.826194 1.000000
0.450000 0.829957 1.000000
0.450000 0.834162 1.000000
0.116194 0.834228 0.887672
0.450000 0.832719 1.000000
0.450000 0.829170 1.000000
0.450000 0.829480 1.000000
0.450000 0.830292 1.000000
0.197567 0.842373 1.000000
0.450000 0.837152 1.000000
0.450000 0.831279 1.000000
0.450000 0.829927 1.000000
0.450000 0.829456 1.000000
0.000000 0.050000 1.000000
0.266319 0.050000 1.000000
0.400000 0.050000 1.000000
0.400000 0.050000 1.000000
0.400000 0.050000 1.000000
0.028874 0.511982 1.000000
0.358665 0.551448 1.000000
0.431322 0.551155 1.000000
0.436411 0.632578 1.000000
0.443216 0.741454 1.000000
0.050000 0.850000 1.000000
0.402355 0.850000 1.000000
0.450000 0.850000 1.000000
0.450000 0.850000 1.000000
0.450000 0.850000 1.000000
0.110621 0.850000 1.000000
0.450000 0.850000 1.000000
0.450000 0.850000 1.000000
0.450000 0.850000 1.000000
0.450000 0.850000 1.000000
0.183425 0.850000 1.000000
0.450000 0.850000 1.000000
0.450000 0.850000 1.000000
0.450000 0.850000 1.000000
0.450000 0.850000 1.000000
0.000000 0.050000 1.000000
0.261106 0.050000 1.000000
0.400000 0.050000 1.000000
0.400000 0.050000 1.000000
0.400000 0.050000 1.000000
0.029902 0.528438 1.000000
0.369246 0.565767 1.000000
0.432349 0.567586 1.000000
0.437443 0.649094 1.000000
0.444112 0.755785 1.000000
0.050000 0.850000 1.000000
0.411059 0.850000 1.000000
0.450000 0.850000 1.000000
0.450000 0.850000 1.000000
0.450000 0.850000 1.000000
0.112074 0.850000 1.000000
0.450000 0.850000 1.000000
0.450000 0.850000 1.000000
0.450000 0.850000 1.000000
0.450000 0.850000 1.000000
0.177132 0.850000 1.000000
0.450000 0.850000 1.000000
0.450000 0.850000 1.000000
0.450000 0.850000 1.000000
0.450000 0.850000 1.000000
0.000000 0.050000 1.000000
0.265892 0.050000 1.000000
0.400000 0.050000 1.000000
0.400000 0.050000 1.000000
0.400000 0.050000 1.000000
0.032036 0.562569 1.000000
0.389616 0.598031 1.000000
0.434453 0.601242 1.000000
0.439526 0.682419 1.000000
0.446016 0.786254 1.000000
0.050000 0.850000 1.000000
0.428082 0.850000 1.000000
0.450000 0.850000 1.000000
0.450000 0.850000 1.000000
0.450000 0.850000 1.000000
0.121009 0.850000 1.000000
0.450000 0.850000 1.000000
0.450000 0.850000 1.000000
0.450000 0.850000 1.000000
0.450000 0.850000 1.000000
0.178786 0.850000 1.000000
0.450000 0.850000 1.000000
0.450000 0.850000 1.000000
0.450000 0.850000 1.000000
0.450000 0.850000 1.000000
