Project/Assets/Textures/Lut/lut_hot.cube
TITLE "Generated by Resolve"
LUT_3D_SIZE 33
0 0 0
0.0504463 0 0
0.10573 0 0
0.169207 0 0
0.248371 0 0
0.347417 0 0
0.46656 0 0
0.592706 0 0
0.716594 0 0
0.841779 0 0
0.969421 0 0
1 0 0
1 0 0
1 0 0
1 0 0
1 0 0
1 0 0
1 0 0
1 0 0
1 0 0
1 0 0
1 0 0
1 0 0
1 0 0
1 0 0
1 0 0
1 0 0
1 0 0
1 0 0
1 0 0
1 0 0
1 0 0
1 0 0
0 0.0361181 0
0.0527352 0.0356756 0
0.109133 0.0343023 0
0.173648 0.0313268 0
0.252918 0.0234379 0
0.354238 0.010605 0
0.474022 0 0
0.601358 0 0
0.724849 0 0
0.851637 0 0
0.979522 0 0
1 0 0
1 0 0
1 0 0
1 0 0
1 0 0
1 0 0
1 0 0
1 0 0
1 0 0
1 0 0
1 0 0
1 0 0
1 0 0
1 0 0
1 0 0
1 0 0
1 0 0
1 0 0
1 0 0
1 0 0
1 0 0
1 0 0
0 0.0862135 0
0.0542458 0.0856794 0
0.111086 0.0843061 0
0.17644 0.0811017 0
0.258289 0.0740673 0
0.3608 0.0608988 0
0.482994 0.0438392 0
0.610742 0.024918 0
0.736019 0.0075227 0
0.864622 0 0
0.994614 0 0
1 0 0
1 0 0
1 0 0
1 0 0
1 0 0
1 0 0
1 0 0
1 0 0
1 0 0
1 0 0
1 0 0
1 0 0
1 0 0
1 0 0
1 0 0
1 0 0
1 0.0154116 0
1 0.0333257 0
1 0.0503395 0
1 0.0677653 0
1 0.0842145 0
1 0.100908 0
0 0.138689 0
0.0528573 0.138308 0
0.110475 0.137942 0
0.177646 0.134951 0
0.262348 0.128725 0
0.367941 0.116609 0
0.492714 0.101015 0
0.622309 0.0840467 0
0.750408 0.0694133 0
0.881239 0.0544137 0
1 0.0401465 0
1 0.0268101 0
1 0.0153506 0
1 0.00593576 0
1 0 0
1 0 0
1 0 0
1 0 0
1 0 0
1 0.0069276 0
1 0.0162814 0
1 0.0287175 0
1 0.0428779 0
1 0.0582895 0
1 0.0749523 0
1 0.0914321 0
1 0.109224 0
1 0.126894 0
1 0.144274 0
1 0.160479 0.000320439
1 0.176608 0.0164797
1 0.192584 0.0324865
1 0.209369 0.0493019
0 0.197101 0
0.0450294 0.198474 0
0.104204 0.199084 0
0.174472 0.198383 0
0.261692 0.193149 0
0.371221 0.182956 0
0.499489 0.169802 0
0.631907 0.15584 0
0.7626 0.143633 0
0.896849 0.131807 0
1 0.121233 0
1 0.111742 0
1 0.103655 0
1 0.097734 0
1 0.0943923 0
1 0.0931716 0
1 0.0953384 0
1 0.100374 0
1 0.10811 0
1 0.117968 0
1 0.129427 0
1 0.142916 0
1 0.157916 0
1 0.173739 0
1 0.190158 0
1 0.206088 0
1 0.222675 0
1 0.239429 0.00810254
1 0.256443 0.0251926
1 0.273365 0.0421912
1 0.289448 0.0584268
1 0.305928 0.0750591
1 0.32314 0.0924239
0 0.266575 0
0.0273594 0.270146 0
0.0899214 0.272923 0
0.163424 0.274189 0
0.255665 0.272099 0
0.36997 0.264652 0
0.50161 0.253864 0
0.637308 0.243397 0
0.771771 0.23473 0
0.909865 0.226596 0
1 0.219425 0
1 0.213718 0
1 0.209491 0
1 0.207065 0
1 0.206744 0
1 0.208774 0
1 0.212604 0
1 0.219501 0
1 0.228336 0
1 0.238972 0
1 0.250355 0
1 0.263737 0
1 0.277943 0
1 0.292729 0
1 0.308278 0
1 0.324208 0.00135805
1 0.340948 0.0183413
1 0.358221 0.0358282
1 0.375769 0.0536202
1 0.393057 0.0711376
1 0.409354 0.0876631
1 0.4262 0.104753
1 0.443671 0.122438
0 0.351034 0
0.00128176 0.357336 0
0.068101 0.363516 0
0.145861 0.367636 0
0.242496 0.368093 0
0.361929 0.363867 0
0.497963 0.356664 0
0.636667 0.350317 0
0.775464 0.345434 0
0.917128 0.34107 0
1 0.33724 0
1 0.334279 0
1 0.331731 0
1 0.331334 0
1 0.332479 0
1 0.335714 0
1 0.340108 0
1 0.347005 0
1 0.355489 0
1 0.365332 0
1 0.375998 0
1 0.388449 0
1 0.40264 0
1 0.417975 0
1 0.434073 0
1 0.450706 0.0124819
1 0.467628 0.0297551
1 0.485252 0.0476844
1 0.50309 0.0658427
1 0.5205 0.0835737
1 0.537209 0.100603
1 0.554116 0.11783
1 0.571664 0.135698
0 0.451057 0
0 0.460441 0
0.04448 0.469764 0
0.127016 0.477424 0
0.228565 0.481498 0
0.353368 0.48072 0
0.493782 0.476982 0
0.635294 0.47306 0
0.776928 0.470909 0
0.921431 0.468666 0
1 0.466621 0
1 0.465019 0
1 0.463325 0
1 0.463386 0
1 0.464683 0
1 0.467323 0
1 0.470817 0
1 0.476799 0
1 0.484886 0
1 0.494942 0
1 0.506661 0
1 0.519356 0
1 0.53402 0
1 0.549813 0
1 0.566415 0
1 0.583169 0.0116884
1 0.600458 0.0293431
1 0.618418 0.0476692
1 0.63624 0.0658579
1 0.653452 0.0834058
1 0.670436 0.100771
1 0.687388 0.118074
1 0.704875 0.135927
0 0.562707 0
0 0.576104 0
0.0307927 0.58854 0
0.117983 0.599451 0
0.224552 0.606149 0
0.353491 0.607614 0
0.496559 0.60592 0
0.639445 0.603769 0
0.782483 0.602792 0
0.92723 0.601404 0
1 0.599619 0
1 0.597787 0
1 0.595499 0
1 0.594522 0
1 0.594873 0
1 0.597299 0
1 0.601572 0
1 0.608057 0
1 0.616754 0
1 0.627222 0
1 0.639612 0
1 0.652705 0
1 0.66772 0
1 0.683787 0
1 0.70071 0
1 0.717388 0.00822461
1 0.735103 0.0261845
1 0.753109 0.0444038
1 0.770916 0.0625315
1 0.787778 0.0797436
1 0.804883 0.0972
1 0.821729 0.114397
1 0.839002 0.132021
0 0.685267 0
0 0.701411 0
0.0305028 0.71696 0
0.12018 0.728878 0
0.229786 0.736736 0
0.360647 0.739071 0
0.504677 0.737881 0
0.647288 0.735988 0
0.790112 0.73463 0
0.934615 0.73228 0
1 0.729381 0
1 0.726848 0
1 0.724407 0
1 0.723934 0
1 0.725093 0
1 0.728145 0
1 0.733059 0
1 0.739818 0
1 0.748989 0
1 0.75996 0
1 0.772488 0
1 0.785946 0
1 0.801221 0
1 0.817273 0
1 0.834241 0
1 0.850813 0.00772107
1 0.868605 0.0258793
1 0.886336 0.043946
1 0.903944 0.0619059
1 0.920623 0.0789349
1 0.936889 0.0955673
1 0.953933 0.112947
1 0.97081 0.13019
0 0.816678 0
0 0.834211 0
0.0318914 0.850568 0
0.123201 0.862638 0
0.233738 0.870268 0
0.366049 0.871595 0
0.509606 0.869322 0
0.651041 0.866453 0
0.793423 0.864302 0
0.938064 0.861845 0
1 0.859586 0
1 0.857572 0
1 0.855756 0
1 0.855543 0
1 0.857191 0
1 0.860685 0
1 0.865919 0
1 0.873106 0
1 0.882551 0
1 0.893797 0
1 0.906188 0
1 0.919997 0
1 0.935302 0
1 0.951476 0
1 0.968185 0
1 0.984604 0.0049897
1 1 0.0229038
1 1 0.0406958
1 1 0.05832
1 1 0.0750744
1 1 0.0911421
1 1 0.108034
1 1 0.124727
0 0.951186 0
0 0.968566 0
0.0327001 0.984146 0
0.123827 0.994919 0
0.235187 1 0
0.368277 1 0
0.511742 0.999481 0
0.654063 0.997604 0
0.796521 0.995529 0
0.941711 0.993515 0
1 0.991516 0
1 0.989883 0
1 0.988357 0
1 0.988708 0
1 0.990524 0
1 0.994308 0
1 0.999527 0
1 1 0
1 1 0
1 1 0
1 1 0
1 1 0
1 1 0
1 1 0
1 1 0
1 1 0.000350958
1 1 0.017731
1 1 0.03505
1 1 0.0522927
1 1 0.0688945
1 1 0.083711
1 1 0.0998398
1 1 0.11574
0 1 0
0 1 0
0.0311284 1 0
0.123568 1 0
0.237217 1 0
0.37145 1 0
0.516182 1 0
0.658534 1 0
0.801648 1 0
0.947219 1 0
1 1 0
1 1 0
1 1 0
1 1 0
1 1 0
1 1 0
1 1 0
1 1 0
1 1 0
1 1 0
1 1 0
1 1 0
1 1 0
1 1 0
1 1 0
1 1 0
1 1 0.0103761
1 1 0.0270695
1 1 0.0436103
1 1 0.0594797
1 1 0.0743877
1 1 0.0894789
1 1 0.104128
0 1 0
0 1 0
0.0317998 1 0
0.126635 1 0
0.241474 1 0
0.377707 1 0
0.522835 1 0
0.664927 1 0
0.808148 1 0
0.953552 1 0
1 1 0
1 1 0
1 1 0
1 1 0
1 1 0
1 1 0
1 1 0
1 1 0
1 1 0
1 1 0
1 1 0
1 1 0
1 1 0
1 1 0
1 1 0
1 1 0
1 1 0.002533
1 1 0.0185702
1 1 0.0340887
1 1 0.0490272
1 1 0.0630198
1 1 0.0773938
1 1 0.0914473
0 1 0
0 1 0
0.0362554 1 0
0.132479 1 0
0.249241 1 0
0.386206 1 0
0.531609 1 0
0.673426 1 0
0.817517 1 0
0.963256 1 0
1 1 0
1 1 0
1 1 0
1 1 0
1 1 0
1 1 0
1 1 0
1 1 0
1 1 0
1 1 0
1 1 0
1 1 0
1 1 0
1 1 0
1 1 0
1 1 0
1 1 0
1 1 0.0100557
1 1 0.0245365
1 1 0.0379797
1 1 0.0505531
1 1 0.0637522
1 1 0.0765698
0 1 0
0 1 0
0.0453346 1 0
0.142229 1 0
0.261143 1 0
0.399023 1 0
0.54435 1 0
0.685847 1 0
0.830014 1 0
0.975357 1 0
1 1 0
1 1 0
1 1 0
1 1 0
1 1 0
1 1 0
1 1 0
1 1 0
1 1 0
1 1 0
1 1 0
1 1 0
1 1 0
1 1 0
1 1 0
1 1 0
1 1 0
1 1 0.000259403
1 1 0.0135348
1 1 0.0262455
1 1 0.0377508
1 1 0.0496376
1 1 0.0611276
0 1 0
0 1 0
0.0592508 1 0
0.157458 1 0
0.277302 1 0
0.416373 1 0
0.561196 1 0
0.702281 1 0
0.846174 1 0
0.991318 1 0
1 1 0
1 1 0
1 1 0
1 1 0
1 1 0
1 1 0
1 1 0
1 1 0
1 1 0
1 1 0
1 1 0
1 1 0
1 1 0
1 1 0
1 1 0
1 1 0
1 1 0
1 1 0
1 1 0.00370794
1 1 0.0150607
1 1 0.0252995
1 1 0.035874
1 1 0.046067
0 1 0
0 1 0
0.0779126 1 0
0.177188 1 0
0.298314 1 0
0.437598 1 0
0.582238 1 0
0.722972 1 0
0.866499 1 0
1 1 0
1 1 0
1 1 0
1 1 0
1 1 0
1 1 0
1 1 0
1 1 0
1 1 0
1 1 0
1 1 0
1 1 0
1 1 0
1 1 0
1 1 0
1 1 0
1 1 0
1 1 0
1 1 0
1 1 0
1 1 0.00540169
1 1 0.0144045
1 1 0.0237125
1 1 0.0326543
0 1 0
0.0173648 1 0
0.101839 1 0
0.20267 1 0
0.324849 1 0
0.464439 1 0
0.608362 1 0
0.748943 1 0
0.891218 1 0
1 1 0
1 1 0
1 1 0
1 1 0
1 1 0
1 1 0
1 1 0
1 1 0
1 1 0
1 1 0
1 1 0
1 1 0
1 1 0
1 1 0
1 1 0
1 1 0
1 1 0
1 1 0
1 1 0
1 1 0
1 1 0
1 1 0.00518807
1 1 0.0132906
1 1 0.0210269
0 1 0
0.0454414 1 0
0.130312 1 0
0.231556 1 0
0.354437 1 0
0.494102 1 0
0.637095 1 0
0.777203 1 0
0.919554 1 0
1 1 0
1 1 0
1 1 0
1 1 0
1 1 0
1 1 0
1 1 0
1 1 0
1 1 0
1 1 0
1 1 0
1 1 0
1 1 0
1 1 0
1 1 0
1 1 0
1 1 0
1 1 0
1 1 0
1 1 0
1 1 0
1 1 0
1 1 0.00543221
1 1 0.0125734
0.00184634 1 0
0.0773022 1 0
0.162432 1 0
0.264866 1 0
0.388144 1 0
0.527459 1 0
0.66923 1 0
0.808545 1 0
0.950011 1 0
1 1 0
1 1 0
1 1 0
1 1 0
1 1 0
1 1 0
1 1 0
1 1 0
1 1 0
1 1 0
1 1 0
1 1 0
1 1 0
1 1 0
1 1 0
1 1 0
1 1 0
1 1 0
1 1 0
1 1 0
1 1 0
1 1 0
1 1 0
1 1 0.00486763
0.0363775 1 0
0.111513 1 0
0.196811 1 0
0.299733 1 0
0.423484 1 0
0.562737 1 0
0.702998 1 0
0.841382 1 0
0.981476 1 0
1 1 0
1 1 0
1 1 0
1 1 0
1 1 0
1 1 0
1 1 0
1 1 0
1 1 0
1 1 0
1 1 0
1 1 0
1 1 0
1 1 0
1 1 0
1 1 0
1 1 0
1 1 0
1 1 0
1 1 0
1 1 0
1 1 0
1 1 0
1 1 3.0518e-05
0.0738537 1 0
0.148302 1 0
0.233097 1 0
0.33579 1 0.000732433
0.460441 1 0
0.598947 1 0
0.737774 1 0
0.875105 1 0
1 1 0
1 1 0
1 1 0
1 1 0
1 1 0
1 1 0
1 1 0
1 1 0
1 1 0
1 1 0
1 1 0
1 1 0
1 1 0
1 1 0
1 1 0
1 1 0
1 1 0
1 1 0
1 1 0
1 1 0
1 1 0
1 1 0
1 1 0
1 1 0
1 1 0
0.111833 1 0.00622568
0.185321 1 0.0186007
0.270527 1 0.0273289
0.374044 1 0.0306096
0.498802 1 0.0276341
0.636484 1 0.0206607
0.773205 1 0.0134432
0.909529 1 0.00581369
1 1 0
1 1 0
1 1 0
1 1 0
1 1 0
1 1 0
1 1 0
1 1 0
1 1 0
1 1 0
1 1 0
1 1 0
1 1 0
1 1 0
1 1 0
1 1 0
1 1 0
1 1 0
1 1 0
1 1 0
1 1 0
1 1 0
1 1 0
1 1 0
1 1 0
0.150332 1 0.0402838
0.223087 1 0.051194
0.308095 1 0.0582895
0.411765 1 0.0598459
0.536019 1 0.0553445
0.672816 1 0.046952
0.808423 1 0.0383917
0.943542 1 0.0294804
1 1 0.0196384
1 1 0.00927749
1 1 0
1 1 0
1 1 0
1 1 0
1 1 0
1 1 0
1 1 0
1 1 0
1 1 0
1 1 0
1 1 0
1 1 0
1 1 0
1 1 0
1 1 0
1 1 0
1 1 0
1 1 0
1 1 0
1 1 0
1 1 0
1 1 0
1 1 0
0.186984 1 0.0724498
0.259083 1 0.0819409
0.343969 1 0.0874342
0.447257 1 0.0874647
0.572137 1 0.0811475
0.708064 1 0.0714122
0.842145 1 0.0616922
0.976242 1 0.0515145
1 1 0.0404669
1 1 0.0293889
1 1 0.018143
1 1 0.00688182
1 1 0
1 1 0
1 1 0
1 1 0
1 1 0
1 1 0
1 1 0
1 1 0
1 1 0
1 1 0
1 1 0
1 1 0
1 1 0
1 1 0
1 1 0
1 1 0
1 1 0
1 1 0
1 1 0
1 1 0
1 1 0
0.221561 1 0.102785
0.293935 1 0.111467
0.378195 1 0.115557
0.482353 1 0.113787
0.606897 1 0.10602
0.741726 1 0.0950484
0.874357 1 0.0841993
1 1 0.0728008
1 1 0.0612802
1 1 0.0485847
1 1 0.0358434
1 1 0.0235142
1 1 0.0127413
1 1 0.00230411
1 1 0
1 1 0
1 1 0
1 1 0
1 1 0
1 1 0
1 1 0
1 1 0
1 1 0
1 1 0
1 1 0
1 1 0
1 1 0
1 1 0
1 1 0
1 1 0
1 1 0
1 1 0
1 1 0
0.254551 1 0.131716
0.326177 1 0.138338
0.410498 1 0.140887
0.514992 1 0.137514
0.639399 1 0.128313
0.77348 1 0.11606
0.905516 1 0.104891
1 1 0.0923018
1 1 0.0789044
