Project/Assets/Textures/Lut/lut_hot.cube
TITLE "Generated by Resolve"
LUT_3D_SIZE 5
0 0 0
0.716594 0 0
1 0 0
1 0 0
1 0 0
0 0.562707 0
0.782483 0.602792 0
1 0.601572 0
1 0.70071 0
1 0.839002 0.132021
0 1 0
0.846174 1 0
1 1 0
1 1 0
1 1 0.046067
0.150332 1 0.0402838
1 1 0.0196384
1 1 0
1 1 0
1 1 0
0.374289 1 0.228702
1 1 0.131411
1 1 0.0178073
1 1 0
1 1 0
0 0 0.612116
0.704097 0 0.529015
1 0 0.400824
1 0 0.423362
1 0 0.550027
0 0.580804 0.503227
0.81442 0.629191 0.552697
1 0.6271 0.55172
1 0.728054 0.654292
1 0.865644 0.792477
0 1 0.487739
0.877668 1 0.52845
1 1 0.523888
1 1 0.599145
1 1 0.683238
0.165484 1 0.684565
1 1 0.654383
1 1 0.583398
1 1 0.589609
1 1 0.605844
0.368917 1 0.847456
1 1 0.743038
1 1 0.625574
1 1 0.598535
1 1 0.58912
0 0 1
0.665797 0 1
1 0 1
1 0 1
1 0 1
0 0.577478 1
0.818311 0.62681 1
1 0.626444 1
1 0.728222 1
1 0.864317 1
0 1 1
0.880888 1 1
1 1 1
1 1 1
1 1 1
0.151553 1 1
1 1 1
1 1 1
1 1 1
1 1 1
0.333562 1 1
1 1 1
1 1 1
1 1 1
1 1 1
0 0 1
0.652766 0 1
1 0 1
1 0 1
1 0 1
0 0.598047 1
0.842527 0.644709 1
1 0.646983 1
1 0.748867 1
1 0.882231 1
0 1 1
0.902647 1 1
1 1 1
1 1 1
1 1 1
0.155184 1 1
1 1 1
1 1 1
1 1 1
1 1 1
0.31783 1 1
1 1 1
1 1 1
1 1 1
1 1 1
0 0 1
0.664729 0 1
1 0 1
1 0 1
1 0 1
0 0.640711 1
0.888411 0.685039 1
1 0.689052 1
1 0.790524 1
1 0.920317 1
0 1 1
0.945205 1 1
1 1 1
1 1 1
1 1 1
0.177523 1 1
1 1 1
1 1 1
1 1 1
1 1 1
0.321965 1 1
1 1 1
1 1 1
1 1 1
1 1 1
