Project/Assets/Textures/Lut/lut_cool.cube
TITLE "Cooler Blue LUT"
LUT_3D_SIZE 33
0.000000 0.000000 0.000000
0.020179 0.000000 0.020179
0.042292 0.000000 0.042292
0.067683 0.000000 0.067683
0.099348 0.000000 0.099348
0.138967 0.000000 0.138967
0.186624 0.000000 0.186624
0.237082 0.000000 0.237082
0.286638 0.000000 0.286638
0.336712 0.000000 0.336712
0.387768 0.000000 0.387768
0.400000 0.000000 0.400000
0.400000 0.000000 0.400000
0.400000 0.000000 0.400000
0.400000 0.000000 0.400000
0.400000 0.000000 0.400000
0.400000 0.000000 0.400000
0.400000 0.000000 0.400000
0.400000 0.000000 0.400000
0.400000 0.000000 0.400000
0.400000 0.000000 0.400000
0.400000 0.000000 0.400000
0.400000 0.000000 0.400000
0.400000 0.000000 0.400000
0.400000 0.000000 0.400000
0.400000 0.000000 0.400000
0.400000 0.000000 0.400000
0.400000 0.000000 0.400000
0.400000 0.000000 0.400000
0.400000 0.000000 0.400000
0.400000 0.000000 0.400000
0.400000 0.000000 0.400000
0.400000 0.000000 0.400000
0.001806 0.028894 0.000000
0.022878 0.028540 0.021094
0.045368 0.027442 0.043653
0.071026 0.025061 0.069459
0.102339 0.018750 0.101167
0.142225 0.008484 0.141695
0.189609 0.000000 0.189609
0.240543 0.000000 0.240543
0.289940 0.000000 0.289940
0.340655 0.000000 0.340655
0.391809 0.000000 0.391809
0.400000 0.000000 0.400000
0.400000 0.000000 0.400000
0.400000 0.000000 0.400000
0.400000 0.000000 0.400000
0.400000 0.000000 0.400000
0.400000 0.000000 0.400000
0.400000 0.000000 0.400000
0.400000 0.000000 0.400000
0.400000 0.000000 0.400000
0.400000 0.000000 0.400000
0.400000 0.000000 0.400000
0.400000 0.000000 0.400000
0.400000 0.000000 0.400000
0.400000 0.000000 0.400000
0.400000 0.000000 0.400000
0.400000 0.000000 0.400000
0.400000 0.000000 0.400000
0.400000 0.000000 0.400000
0.400000 0.000000 0.400000
0.400000 0.000000 0.400000
0.400000 0.000000 0.400000
0.400000 0.000000 0.400000
0.004311 0.068971 0.000000
0.025982 0.068544 0.021698
0.048650 0.067445 0.044434
0.074631 0.064881 0.070576
0.107019 0.059254 0.103316
0.147365 0.048719 0.144320
0.195390 0.035071 0.193198
0.245543 0.019934 0.244297
0.294784 0.006018 0.294408
0.345849 0.000000 0.345849
0.397846 0.000000 0.397846
0.400000 0.000000 0.400000
0.400000 0.000000 0.400000
0.400000 0.000000 0.400000
0.400000 0.000000 0.400000
0.400000 0.000000 0.400000
0.400000 0.000000 0.400000
0.400000 0.000000 0.400000
0.400000 0.000000 0.400000
0.400000 0.000000 0.400000
0.400000 0.000000 0.400000
0.400000 0.000000 0.400000
0.400000 0.000000 0.400000
0.400000 0.000000 0.400000
0.400000 0.000000 0.400000
0.400000 0.000000 0.400000
0.400000 0.000000 0.400000
0.400771 0.012329 0.400000
0.401666 0.026661 0.400000
0.402517 0.040272 0.400000
0.403388 0.054212 0.400000
0.404211 0.067372 0.400000
0.405045 0.080726 0.400000
0.006934 0.110951 0.000000
0.028058 0.110646 0.021143
0.051087 0.110354 0.044190
0.077806 0.107961 0.071058
0.111375 0.102980 0.104939
0.153007 0.093287 0.147176
0.202136 0.080812 0.197086
0.253126 0.067237 0.248924
0.303634 0.055531 0.300163
0.355216 0.043531 0.352496
0.402007 0.032117 0.400000
0.401341 0.021448 0.400000
0.400768 0.012280 0.400000
0.400297 0.004749 0.400000
0.400000 0.000000 0.400000
0.400000 0.000000 0.400000
0.400000 0.000000 0.400000
0.400000 0.000000 0.400000
0.400000 0.000000 0.400000
0.400346 0.005542 0.400000
0.400814 0.013025 0.400000
0.401436 0.022974 0.400000
0.402144 0.034302 0.400000
0.402914 0.046632 0.400000
0.403748 0.059962 0.400000
0.404572 0.073146 0.400000
0.405461 0.087379 0.400000
0.406345 0.101515 0.400000
0.407214 0.115419 0.400000
0.408024 0.128399 0.400385
0.408830 0.142110 0.419776
0.409629 0.155692 0.438984
0.410468 0.169960 0.459162
0.009855 0.157681 0.000000
0.027935 0.158779 0.018012
0.051636 0.159267 0.041682
0.079708 0.158706 0.069789
0.114334 0.154519 0.104677
0.157636 0.146365 0.148488
0.208286 0.135842 0.199796
0.260555 0.124672 0.252763
0.312222 0.114906 0.305040
0.365330 0.105446 0.358740
0.406062 0.096986 0.400000
0.405587 0.089394 0.400000
0.405183 0.082924 0.400000
0.404887 0.078187 0.400000
0.404720 0.075514 0.400000
0.404659 0.074537 0.400000
0.404767 0.076271 0.400000
0.405019 0.080299 0.400000
0.405406 0.086488 0.400000
0.405898 0.094374 0.400000
0.406471 0.103542 0.400000
0.407146 0.114333 0.400000
0.407896 0.126333 0.400000
0.408687 0.138991 0.400000
0.409508 0.152126 0.400000
0.410304 0.164870 0.400000
0.411134 0.178140 0.400000
0.411971 0.191948 0.409723
0.412822 0.206414 0.430231
0.413668 0.220802 0.450629
0.414472 0.234480 0.470112
0.415296 0.248495 0.490071
0.416157 0.263133 0.510909
0.013329 0.213260 0.000000
0.024451 0.216117 0.010944
0.049615 0.218338 0.035969
0.079079 0.219351 0.065370
0.115871 0.217679 0.102266
0.161221 0.211722 0.147988
0.213337 0.203091 0.200644
0.267093 0.194718 0.254923
0.320445 0.187784 0.308708
0.375276 0.181277 0.363946
0.410971 0.175540 0.400000
0.410686 0.170974 0.400000
0.410475 0.167593 0.400000
0.410353 0.165652 0.400000
0.410337 0.165395 0.400000
0.410439 0.167019 0.400000
0.410630 0.170083 0.400000
0.410975 0.175601 0.400000
0.411417 0.182669 0.400000
0.411949 0.191178 0.400000
0.412518 0.200284 0.400000
0.413187 0.210990 0.400000
0.413897 0.222354 0.400000
0.414636 0.234183 0.400000
0.415414 0.246622 0.400000
0.416210 0.259434 0.401630
0.417047 0.273675 0.422010
0.417911 0.288368 0.442994
0.418788 0.303296 0.464344
0.419653 0.318002 0.485365
0.420468 0.331866 0.505196
0.421310 0.346198 0.525704
0.422184 0.361059 0.546926
0.017552 0.280827 0.000000
0.018380 0.285869 0.000513
0.045416 0.290813 0.027240
0.076726 0.294109 0.058344
0.115403 0.294474 0.096998
0.162965 0.291094 0.144772
0.217018 0.285331 0.199185
0.272183 0.280254 0.254667
0.327457 0.276347 0.310186
0.383905 0.272856 0.366851
0.416862 0.269792 0.400000
0.416714 0.267423 0.400000
0.416587 0.265385 0.400000
0.416567 0.265067 0.400000
0.416624 0.265983 0.400000
0.416786 0.268571 0.400000
0.417005 0.272086 0.400000
0.417350 0.277604 0.400000
0.417774 0.284391 0.400000
0.418267 0.292266 0.400000
0.418800 0.300798 0.400000
0.419422 0.310759 0.400000
0.420132 0.322112 0.400000
0.420899 0.334380 0.400000
0.421704 0.347258 0.400000
0.422535 0.361189 0.414978
0.423381 0.375590 0.435706
0.424263 0.390586 0.457221
0.425155 0.405764 0.479011
0.426025 0.420579 0.500288
0.426860 0.434797 0.520724
0.427706 0.449184 0.541396
0.428583 0.464116 0.562838
0.022553 0.360846 0.000000
0.023022 0.368353 0.000000
0.041280 0.375811 0.017792
0.074678 0.381939 0.050806
0.115501 0.385198 0.091426
0.165383 0.384576 0.141347
0.221362 0.381586 0.197513
0.277771 0.378448 0.254118
0.334317 0.376727 0.310771
0.392006 0.374933 0.368572
0.423331 0.373297 0.400000
0.423251 0.372015 0.400000
0.423166 0.370660 0.400000
0.423169 0.370709 0.400000
0.423234 0.371746 0.400000
0.423366 0.373858 0.400000
0.423541 0.376654 0.400000
0.423840 0.381439 0.400000
0.424244 0.387909 0.400000
0.424747 0.395954 0.400000
0.425333 0.405329 0.400000
0.425968 0.415485 0.400000
0.426701 0.427216 0.400000
0.427491 0.439850 0.400000
0.428321 0.453132 0.400000
0.429158 0.467120 0.414026
0.430023 0.481834 0.435212
0.430921 0.497118 0.457203
0.431812 0.512285 0.479029
0.432673 0.526932 0.500087
0.433522 0.541387 0.520925
0.434369 0.555814 0.541689
0.435244 0.570696 0.563112
0.028135 0.450166 0.000000
0.028805 0.460883 0.000000
0.041744 0.470832 0.012317
0.077166 0.479561 0.047193
0.120128 0.484919 0.089821
0.171777 0.486091 0.141396
0.228920 0.484736 0.198624
0.285966 0.483015 0.255778
0.343133 0.482234 0.312993
0.400962 0.481123 0.370892
0.429981 0.479695 0.400000
0.429889 0.478230 0.400000
0.429775 0.476399 0.400000
0.429726 0.475618 0.400000
0.429744 0.475898 0.400000
0.429865 0.477839 0.400000
0.430079 0.481258 0.400000
0.430403 0.486446 0.400000
0.430838 0.493403 0.400000
0.431361 0.501778 0.400000
0.431981 0.511690 0.400000
0.432635 0.522164 0.400000
0.433386 0.534176 0.400000
0.434189 0.547030 0.400000
0.435036 0.560568 0.400000
0.435869 0.574322 0.409870
0.436755 0.589392 0.431421
0.437655 0.604707 0.453285
0.438546 0.619859 0.475038
0.439389 0.634210 0.495692
0.440244 0.648766 0.516640
0.441086 0.663103 0.537276
0.441950 0.677803 0.558425
0.034263 0.548214 0.000000
0.035071 0.561129 0.000000
0.048049 0.573568 0.012201
0.084516 0.583102 0.048072
0.128751 0.589389 0.091914
0.181212 0.591257 0.144259
0.238765 0.590305 0.201871
0.295715 0.588790 0.258915
0.352776 0.587704 0.316045
0.410460 0.585824 0.373846
0.436469 0.583505 0.400000
0.436342 0.581478 0.400000
0.436220 0.579526 0.400000
0.436197 0.579147 0.400000
0.436255 0.580074 0.400000
0.436407 0.582516 0.400000
0.436653 0.586447 0.400000
0.436991 0.591854 0.400000
0.437449 0.599191 0.400000
0.437998 0.607968 0.400000
0.438624 0.617990 0.400000
0.439297 0.628757 0.400000
0.440061 0.640977 0.400000
0.440864 0.653818 0.400000
0.441712 0.667393 0.400000
0.442541 0.681036 0.409265
0.443430 0.696178 0.431055
0.444317 0.711266 0.452735
0.445197 0.726250 0.474287
0.446031 0.740445 0.494722
0.446844 0.754290 0.514681
0.447697 0.768794 0.535536
0.448541 0.783157 0.556228
0.040834 0.653342 0.000000
0.041711 0.667369 0.000000
0.055285 0.680454 0.012757
0.092412 0.690110 0.049280
0.137009 0.696214 0.093495
0.189999 0.697276 0.146420
0.247309 0.695458 0.203842
0.303739 0.693162 0.260416
0.360584 0.691442 0.317369
0.418318 0.689476 0.375226
0.442979 0.687669 0.400000
0.442879 0.686058 0.400000
0.442788 0.684605 0.400000
0.442777 0.684434 0.400000
0.442860 0.685753 0.400000
0.443034 0.688548 0.400000
0.443296 0.692735 0.400000
0.443655 0.698485 0.400000
0.444128 0.706041 0.400000
0.444690 0.715038 0.400000
0.445309 0.724950 0.400000
0.446000 0.735998 0.400000
0.446765 0.748242 0.400000
0.447574 0.761181 0.400000
0.448409 0.774548 0.400000
0.449230 0.787933 0.405988
0.450000 0.801145 0.427485
0.450000 0.802035 0.448835
0.450000 0.802916 0.469984
0.450000 0.803754 0.490089
0.450000 0.804557 0.509371
0.450000 0.805402 0.529641
0.450000 0.806236 0.549672
0.047559 0.760949 0.000000
0.048428 0.774853 0.000000
0.062287 0.787317 0.013080
0.099277 0.795935 0.049531
0.144075 0.800000 0.094075
0.197311 0.800000 0.147311
0.254671 0.799585 0.204697
0.311505 0.798083 0.261625
0.368385 0.796423 0.318608
0.426360 0.794812 0.376684
0.449576 0.793213 0.400000
0.449494 0.791906 0.400000
0.449418 0.790686 0.400000
0.449435 0.790966 0.400000
0.449526 0.792419 0.400000
0.449715 0.795446 0.400000
0.449976 0.799622 0.400000
0.450000 0.800000 0.400000
0.450000 0.800000 0.400000
0.450000 0.800000 0.400000
0.450000 0.800000 0.400000
0.450000 0.800000 0.400000
0.450000 0.800000 0.400000
0.450000 0.800000 0.400000
0.450000 0.800000 0.400000
0.450000 0.800018 0.400421
0.450000 0.800887 0.421277
0.450000 0.801753 0.442060
0.450000 0.802615 0.462751
0.450000 0.803445 0.482673
0.450000 0.804186 0.500453
0.450000 0.804992 0.519808
0.450000 0.805787 0.538888
0.050000 0.800000 0.000000
0.050000 0.800000 0.000000
0.062451 0.800000 0.012451
0.099427 0.800000 0.049427
0.144887 0.800000 0.094887
0.198580 0.800000 0.148580
0.256473 0.800000 0.206473
0.313414 0.800000 0.263414
0.370659 0.800000 0.320659
0.428888 0.800000 0.378888
0.450000 0.800000 0.400000
0.450000 0.800000 0.400000
0.450000 0.800000 0.400000
0.450000 0.800000 0.400000
0.450000 0.800000 0.400000
0.450000 0.800000 0.400000
0.450000 0.800000 0.400000
0.450000 0.800000 0.400000
0.450000 0.800000 0.400000
0.450000 0.800000 0.400000
0.450000 0.800000 0.400000
0.450000 0.800000 0.400000
0.450000 0.800000 0.400000
0.450000 0.800000 0.400000
0.450000 0.800000 0.400000
0.450000 0.800000 0.400000
0.450000 0.800519 0.412451
0.450000 0.801353 0.432483
0.450000 0.802181 0.452332
0.450000 0.802974 0.471376
0.450000 0.803719 0.489265
0.450000 0.804474 0.507375
0.450000 0.805206 0.524954
0.050000 0.800000 0.000000
0.050000 0.800000 0.000000
0.062720 0.800000 0.012720
0.100654 0.800000 0.050654
0.146590 0.800000 0.096590
0.201083 0.800000 0.151083
0.259134 0.800000 0.209134
0.315971 0.800000 0.265971
0.373259 0.800000 0.323259
0.431421 0.800000 0.381421
0.450000 0.800000 0.400000
0.450000 0.800000 0.400000
0.450000 0.800000 0.400000
0.450000 0.800000 0.400000
0.450000 0.800000 0.400000
0.450000 0.800000 0.400000
0.450000 0.800000 0.400000
0.450000 0.800000 0.400000
0.450000 0.800000 0.400000
0.450000 0.800000 0.400000
0.450000 0.800000 0.400000
0.450000 0.800000 0.400000
0.450000 0.800000 0.400000
0.450000 0.800000 0.400000
0.450000 0.800000 0.400000
0.450000 0.800000 0.400000
0.450000 0.800127 0.403040
0.450000 0.800929 0.422284
0.450000 0.801704 0.440906
0.450000 0.802451 0.458833
0.450000 0.803151 0.475624
0.450000 0.803870 0.492873
0.450000 0.804572 0.509737
0.050000 0.800000 0.000000
0.050000 0.800000 0.000000
0.064502 0.800000 0.014502
0.102992 0.800000 0.052992
0.149696 0.800000 0.099696
0.204482 0.800000 0.154482
0.262644 0.800000 0.212644
0.319370 0.800000 0.269370
0.377007 0.800000 0.327007
0.435302 0.800000 0.385302
0.450000 0.800000 0.400000
0.450000 0.800000 0.400000
0.450000 0.800000 0.400000
0.450000 0.800000 0.400000
0.450000 0.800000 0.400000
0.450000 0.800000 0.400000
0.450000 0.800000 0.400000
0.450000 0.800000 0.400000
0.450000 0.800000 0.400000
0.450000 0.800000 0.400000
0.450000 0.800000 0.400000
0.450000 0.800000 0.400000
0.450000 0.800000 0.400000
0.450000 0.800000 0.400000
0.450000 0.800000 0.400000
0.450000 0.800000 0.400000
0.450000 0.800000 0.400000
0.450000 0.800503 0.412067
0.450000 0.801227 0.429444
0.450000 0.801899 0.445576
0.450000 0.802528 0.460664
0.450000 0.803188 0.476503
0.450000 0.803828 0.491884
0.050000 0.800000 0.000000
0.050000 0.800000 0.000000
0.068134 0.800000 0.018134
0.106892 0.800000 0.056892
0.154457 0.800000 0.104457
0.209609 0.800000 0.159609
0.267740 0.800000 0.217740
0.324339 0.800000 0.274339
0.382006 0.800000 0.332006
0.440143 0.800000 0.390143
0.450000 0.800000 0.400000
0.450000 0.800000 0.400000
0.450000 0.800000 0.400000
0.450000 0.800000 0.400000
0.450000 0.800000 0.400000
0.450000 0.800000 0.400000
0.450000 0.800000 0.400000
0.450000 0.800000 0.400000
0.450000 0.800000 0.400000
0.450000 0.800000 0.400000
0.450000 0.800000 0.400000
0.450000 0.800000 0.400000
0.450000 0.800000 0.400000
0.450000 0.800000 0.400000
0.450000 0.800000 0.400000
0.450000 0.800000 0.400000
0.450000 0.800000 0.400000
0.450000 0.800013 0.400311
0.450000 0.800677 0.416242
0.450000 0.801312 0.431495
0.450000 0.801888 0.445301
0.450000 0.802482 0.459565
0.450000 0.803056 0.473353
0.050000 0.800000 0.000000
0.050000 0.800000 0.000000
0.073700 0.800000 0.023700
0.112983 0.800000 0.062983
0.160921 0.800000 0.110921
0.216549 0.800000 0.166549
0.274478 0.800000 0.224478
0.330912 0.800000 0.280912
0.388470 0.800000 0.338470
0.446527 0.800000 0.396527
0.450000 0.800000 0.400000
0.450000 0.800000 0.400000
0.450000 0.800000 0.400000
0.450000 0.800000 0.400000
0.450000 0.800000 0.400000
0.450000 0.800000 0.400000
0.450000 0.800000 0.400000
0.450000 0.800000 0.400000
0.450000 0.800000 0.400000
0.450000 0.800000 0.400000
0.450000 0.800000 0.400000
0.450000 0.800000 0.400000
0.450000 0.800000 0.400000
0.450000 0.800000 0.400000
0.450000 0.800000 0.400000
0.450000 0.800000 0.400000
0.450000 0.800000 0.400000
0.450000 0.800000 0.400000
0.450000 0.800185 0.404450
0.450000 0.800753 0.418073
0.450000 0.801265 0.430359
0.450000 0.801794 0.443049
0.450000 0.802303 0.455280
0.050000 0.800000 0.000000
0.050000 0.800000 0.000000
0.081165 0.800000 0.031165
0.120875 0.800000 0.070875
0.169326 0.800000 0.119326
0.225039 0.800000 0.175039
0.282895 0.800000 0.232895
0.339189 0.800000 0.289189
0.396600 0.800000 0.346600
0.450000 0.800000 0.400000
0.450000 0.800000 0.400000
0.450000 0.800000 0.400000
0.450000 0.800000 0.400000
0.450000 0.800000 0.400000
0.450000 0.800000 0.400000
0.450000 0.800000 0.400000
0.450000 0.800000 0.400000
0.450000 0.800000 0.400000
0.450000 0.800000 0.400000
0.450000 0.800000 0.400000
0.450000 0.800000 0.400000
0.450000 0.800000 0.400000
0.450000 0.800000 0.400000
0.450000 0.800000 0.400000
0.450000 0.800000 0.400000
0.450000 0.800000 0.400000
0.450000 0.800000 0.400000
0.450000 0.800000 0.400000
0.450000 0.800000 0.400000
0.450000 0.800270 0.406482
0.450000 0.800720 0.417285
0.450000 0.801186 0.428455
0.450000 0.801633 0.439185
0.050000 0.800000 0.000000
0.056946 0.800000 0.006946
0.090736 0.800000 0.040736
0.131068 0.800000 0.081068
0.179940 0.800000 0.129940
0.235776 0.800000 0.185776
0.293345 0.800000 0.243345
0.349577 0.800000 0.299577
0.406487 0.800000 0.356487
0.450000 0.800000 0.400000
0.450000 0.800000 0.400000
0.450000 0.800000 0.400000
0.450000 0.800000 0.400000
0.450000 0.800000 0.400000
0.450000 0.800000 0.400000
0.450000 0.800000 0.400000
0.450000 0.800000 0.400000
0.450000 0.800000 0.400000
0.450000 0.800000 0.400000
0.450000 0.800000 0.400000
0.450000 0.800000 0.400000
0.450000 0.800000 0.400000
0.450000 0.800000 0.400000
0.450000 0.800000 0.400000
0.450000 0.800000 0.400000
0.450000 0.800000 0.400000
0.450000 0.800000 0.400000
0.450000 0.800000 0.400000
0.450000 0.800000 0.400000
0.450000 0.800000 0.400000
0.450000 0.800259 0.406226
0.450000 0.800665 0.415949
0.450000 0.801051 0.425232
0.050000 0.800000 0.000000
0.068177 0.800000 0.018177
0.102125 0.800000 0.052125
0.142622 0.800000 0.092622
0.191775 0.800000 0.141775
0.247641 0.800000 0.197641
0.304838 0.800000 0.254838
0.360881 0.800000 0.310881
0.417822 0.800000 0.367822
0.450000 0.800000 0.400000
0.450000 0.800000 0.400000
0.450000 0.800000 0.400000
0.450000 0.800000 0.400000
0.450000 0.800000 0.400000
0.450000 0.800000 0.400000
0.450000 0.800000 0.400000
0.450000 0.800000 0.400000
0.450000 0.800000 0.400000
0.450000 0.800000 0.400000
0.450000 0.800000 0.400000
0.450000 0.800000 0.400000
0.450000 0.800000 0.400000
0.450000 0.800000 0.400000
0.450000 0.800000 0.400000
0.450000 0.800000 0.400000
0.450000 0.800000 0.400000
0.450000 0.800000 0.400000
0.450000 0.800000 0.400000
0.450000 0.800000 0.400000
0.450000 0.800000 0.400000
0.450000 0.800000 0.400000
0.450000 0.800272 0.406519
0.450000 0.800629 0.415088
0.050739 0.800000 0.000739
0.080921 0.800000 0.030921
0.114973 0.800000 0.064973
0.155946 0.800000 0.105946
0.205258 0.800000 0.155258
0.260984 0.800000 0.210984
0.317692 0.800000 0.267692
0.373418 0.800000 0.323418
0.430004 0.800000 0.380004
0.450000 0.800000 0.400000
0.450000 0.800000 0.400000
0.450000 0.800000 0.400000
0.450000 0.800000 0.400000
0.450000 0.800000 0.400000
0.450000 0.800000 0.400000
0.450000 0.800000 0.400000
0.450000 0.800000 0.400000
0.450000 0.800000 0.400000
0.450000 0.800000 0.400000
0.450000 0.800000 0.400000
0.450000 0.800000 0.400000
0.450000 0.800000 0.400000
0.450000 0.800000 0.400000
0.450000 0.800000 0.400000
0.450000 0.800000 0.400000
0.450000 0.800000 0.400000
0.450000 0.800000 0.400000
0.450000 0.800000 0.400000
0.450000 0.800000 0.400000
0.450000 0.800000 0.400000
0.450000 0.800000 0.400000
0.450000 0.800000 0.400000
0.450000 0.800243 0.405841
0.064551 0.800000 0.014551
0.094605 0.800000 0.044605
0.128724 0.800000 0.078724
0.169893 0.800000 0.119893
0.219394 0.800000 0.169394
0.275095 0.800000 0.225095
0.331199 0.800000 0.281199
0.386553 0.800000 0.336553
0.442590 0.800000 0.392590
0.450000 0.800000 0.400000
0.450000 0.800000 0.400000
0.450000 0.800000 0.400000
0.450000 0.800000 0.400000
0.450000 0.800000 0.400000
0.450000 0.800000 0.400000
0.450000 0.800000 0.400000
0.450000 0.800000 0.400000
0.450000 0.800000 0.400000
0.450000 0.800000 0.400000
0.450000 0.800000 0.400000
0.450000 0.800000 0.400000
0.450000 0.800000 0.400000
0.450000 0.800000 0.400000
0.450000 0.800000 0.400000
0.450000 0.800000 0.400000
0.450000 0.800000 0.400000
0.450000 0.800000 0.400000
0.450000 0.800000 0.400000
0.450000 0.800000 0.400000
0.450000 0.800000 0.400000
0.450000 0.800000 0.400000
0.450000 0.800000 0.400000
0.450000 0.800002 0.400037
0.079541 0.800000 0.029541
0.109321 0.800000 0.059321
0.143239 0.800000 0.093239
0.184316 0.800037 0.135195
0.234176 0.800000 0.184176
0.289579 0.800000 0.239579
0.345110 0.800000 0.295110
0.400042 0.800000 0.350042
0.450000 0.800000 0.400000
0.450000 0.800000 0.400000
0.450000 0.800000 0.400000
0.450000 0.800000 0.400000
0.450000 0.800000 0.400000
0.450000 0.800000 0.400000
0.450000 0.800000 0.400000
0.450000 0.800000 0.400000
0.450000 0.800000 0.400000
0.450000 0.800000 0.400000
0.450000 0.800000 0.400000
0.450000 0.800000 0.400000
0.450000 0.800000 0.400000
0.450000 0.800000 0.400000
0.450000 0.800000 0.400000
0.450000 0.800000 0.400000
0.450000 0.800000 0.400000
0.450000 0.800000 0.400000
0.450000 0.800000 0.400000
0.450000 0.800000 0.400000
0.450000 0.800000 0.400000
0.450000 0.800000 0.400000
0.450000 0.800000 0.400000
0.450000 0.800000 0.400000
0.450000 0.800000 0.400000
0.094733 0.800311 0.052204
0.124128 0.800930 0.096449
0.158211 0.801366 0.141005
0.199618 0.801530 0.186349
0.249521 0.801382 0.232682
0.304594 0.801033 0.279386
0.359282 0.800672 0.325414
0.413812 0.800291 0.370788
0.450000 0.800000 0.400000
0.450000 0.800000 0.400000
0.450000 0.800000 0.400000
0.450000 0.800000 0.400000
0.450000 0.800000 0.400000
0.450000 0.800000 0.400000
0.450000 0.800000 0.400000
0.450000 0.800000 0.400000
0.450000 0.800000 0.400000
0.450000 0.800000 0.400000
0.450000 0.800000 0.400000
0.450000 0.800000 0.400000
0.450000 0.800000 0.400000
0.450000 0.800000 0.400000
0.450000 0.800000 0.400000
0.450000 0.800000 0.400000
0.450000 0.800000 0.400000
0.450000 0.800000 0.400000
0.450000 0.800000 0.400000
0.450000 0.800000 0.400000
0.450000 0.800000 0.400000
0.450000 0.800000 0.400000
0.450000 0.800000 0.400000
0.450000 0.800000 0.400000
0.450000 0.800000 0.400000
0.110133 0.802014 0.108473
0.139235 0.802560 0.150668
0.173238 0.802914 0.193185
0.214706 0.802992 0.236521
0.264408 0.802767 0.280821
0.319126 0.802348 0.325469
0.373369 0.801920 0.369439
0.427417 0.801474 0.412793
0.450000 0.800982 0.423566
0.450000 0.800464 0.411133
0.450000 0.800000 0.400000
0.450000 0.800000 0.400000
0.450000 0.800000 0.400000
0.450000 0.800000 0.400000
0.450000 0.800000 0.400000
0.450000 0.800000 0.400000
0.450000 0.800000 0.400000
0.450000 0.800000 0.400000
0.450000 0.800000 0.400000
0.450000 0.800000 0.400000
0.450000 0.800000 0.400000
0.450000 0.800000 0.400000
0.450000 0.800000 0.400000
0.450000 0.800000 0.400000
0.450000 0.800000 0.400000
0.450000 0.800000 0.400000
0.450000 0.800000 0.400000
0.450000 0.800000 0.400000
0.450000 0.800000 0.400000
0.450000 0.800000 0.400000
0.450000 0.800000 0.400000
0.450000 0.800000 0.400000
0.450000 0.800000 0.400000
0.124794 0.803622 0.161733
0.153633 0.804097 0.201962
0.187588 0.804372 0.242509
0.228903 0.804373 0.283860
0.278855 0.804057 0.326232
0.333226 0.803571 0.368920
0.386858 0.803085 0.410889
0.440497 0.802576 0.452314
0.450000 0.802023 0.448560
0.450000 0.801469 0.435267
0.450000 0.800907 0.421772
0.450000 0.800344 0.408258
0.450000 0.800000 0.400000
0.450000 0.800000 0.400000
0.450000 0.800000 0.400000
0.450000 0.800000 0.400000
0.450000 0.800000 0.400000
0.450000 0.800000 0.400000
0.450000 0.800000 0.400000
0.450000 0.800000 0.400000
0.450000 0.800000 0.400000
0.450000 0.800000 0.400000
0.450000 0.800000 0.400000
0.450000 0.800000 0.400000
0.450000 0.800000 0.400000
0.450000 0.800000 0.400000
0.450000 0.800000 0.400000
0.450000 0.800000 0.400000
0.450000 0.800000 0.400000
0.450000 0.800000 0.400000
0.450000 0.800000 0.400000
0.450000 0.800000 0.400000
0.450000 0.800000 0.400000
0.138624 0.805139 0.211966
0.167574 0.805573 0.251334
0.201278 0.805778 0.289946
0.242941 0.805689 0.329486
0.292759 0.805301 0.369983
0.346690 0.804752 0.410748
0.399743 0.804210 0.450782
0.450000 0.803640 0.487361
0.450000 0.803064 0.473536
0.450000 0.802429 0.458302
0.450000 0.801792 0.443012
0.450000 0.801176 0.428217
0.450000 0.800637 0.415290
0.450000 0.800115 0.402765
0.450000 0.800000 0.400000
0.450000 0.800000 0.400000
0.450000 0.800000 0.400000
0.450000 0.800000 0.400000
0.450000 0.800000 0.400000
0.450000 0.800000 0.400000
0.450000 0.800000 0.400000
0.450000 0.800000 0.400000
0.450000 0.800000 0.400000
0.450000 0.800000 0.400000
0.450000 0.800000 0.400000
0.450000 0.800000 0.400000
0.450000 0.800000 0.400000
0.450000 0.800000 0.400000
0.450000 0.800000 0.400000
