Project/Assets/Textures/Lut/lut_hot.cube
TITLE "Generated by Resolve"
LUT_3D_SIZE 9
0 0 0
0.248371 0 0
0.716594 0 0
1 0 0
1 0 0
1 0 0
1 0 0
1 0 0
1 0 0
0 0.197101 0
0.261692 0.193149 0
0.7626 0.143633 0
1 0.103655 0
1 0.0953384 0
1 0.129427 0
1 0.190158 0
1 0.256443 0.0251926
1 0.32314 0.0924239
0 0.562707 0
0.224552 0.606149 0
0.782483 0.602792 0
1 0.595499 0
1 0.601572 0
1 0.639612 0
1 0.70071 0
1 0.770916 0.0625315
1 0.839002 0.132021
0 1 0
0.237217 1 0
0.801648 1 0
1 1 0
1 1 0
1 1 0
1 1 0
1 1 0.0436103
1 1 0.104128
0 1 0
0.277302 1 0
0.846174 1 0
1 1 0
1 1 0
1 1 0
1 1 0
1 1 0.00370794
1 1 0.046067
0.00184634 1 0
0.388144 1 0
0.950011 1 0
1 1 0
1 1 0
1 1 0
1 1 0
1 1 0
1 1 0.00486763
0.150332 1 0.0402838
0.536019 1 0.0553445
1 1 0.0196384
1 1 0
1 1 0
1 1 0
1 1 0
1 1 0
1 1 0
0.285008 1 0.157565
0.670497 1 0.148898
1 1 0.0952468
1 1 0.0387121
1 1 0.00129702
1 1 0
1 1 0
1 1 0
1 1 0
0.374289 1 0.228702
0.762264 1 0.199649
1 1 0.131411
1 1 0.0634775
1 1 0.0178073
1 1 0
1 1 0
1 1 0
1 1 0
0 0 0.196857
0.248157 0 0.18555
0.717693 0 0.115099
1 0 0.0386664
1 0 0
1 0 0
1 0 0
1 0 0.0508125
1 0 0.11664
0 0.198184 0.175738
0.267613 0.196719 0.174716
0.774334 0.151995 0.130388
1 0.117113 0.0959335
1 0.114687 0.0939345
1 0.150851 0.13051
1 0.210254 0.190036
1 0.2766 0.256474
1 0.343908 0.324056
0 0.5785 0.072694
0.247074 0.626368 0.121736
0.806653 0.624262 0.120851
1 0.615442 0.113222
1 0.622049 0.121035
1 0.660456 0.160647
1 0.721843 0.223117
1 0.791989 0.294163
1 0.859724 0.363256
0 1 0.0504616
0.260624 1 0.100679
0.826093 1 0.0980545
1 1 0.0934615
1 1 0.106447
1 1 0.147753
1 1 0.207752
1 1 0.272847
1 1 0.332448
0 1 0.0570993
0.30135 1 0.105501
0.87013 1 0.100603
1 1 0.0916609
1 1 0.0988632
1 1 0.13164
1 1 0.179309
1 1 0.227558
1 1 0.267811
0.022797 1 0.140078
0.409262 1 0.175158
0.969436 1 0.158221
1 1 0.135256
1 1 0.127047
1 1 0.141482
1 1 0.170077
1 1 0.198581
1 1 0.220569
0.165499 1 0.26479
0.551598 1 0.277928
1 1 0.240131
1 1 0.19852
1 1 0.173556
1 1 0.172045
1 1 0.183932
1 1 0.196414
1 1 0.203815
0.29482 1 0.376181
0.679973 1 0.365316
1 1 0.309758
1 1 0.251652
1 1 0.213107
1 1 0.198734
1 1 0.199313
1 1 0.201663
1 1 0.200381
0.379278 1 0.442039
0.767452 1 0.410727
1 1 0.341848
1 1 0.273182
1 1 0.226841
1 1 0.206561
1 1 0.201114
1 1 0.198138
1 1 0.193286
0 0 0.612116
0.232364 0 0.599084
0.704097 0 0.529015
1 0 0.453498
1 0 0.400824
1 0 0.391821
1 0 0.423362
1 0 0.482872
1 0 0.550027
0 0.183673 0.591546
0.259327 0.186069 0.593729
0.772137 0.14641 0.553857
1 0.117571 0.524804
1 0.118685 0.525689
1 0.156207 0.562982
1 0.214755 0.621103
1 0.2822 0.688029
1 0.350072 0.755627
0 0.580804 0.503227
0.254032 0.631006 0.553948
0.81442 0.629191 0.552697
1 0.619257 0.543313
1 0.6271 0.55172
1 0.666407 0.59176
1 0.728054 0.654292
1 0.798291 0.724804
1 0.865644 0.792477
0 1 0.481315
0.267552 1 0.531334
0.834348 1 0.528374
1 1 0.523537
1 1 0.536019
1 1 0.576165
1 1 0.635279
1 1 0.698268
1 1 0.755856
0 1 0.487739
0.309102 1 0.534844
0.877668 1 0.52845
1 1 0.518273
1 1 0.523888
1 1 0.554101
1 1 0.599145
1 1 0.644739
1 1 0.683238
0.0273442 1 0.566552
0.414664 1 0.599863
0.97293 1 0.579751
1 1 0.554513
1 1 0.54374
1 1 0.556588
1 1 0.582406
1 1 0.608927
1 1 0.628672
0.165484 1 0.684565
0.550683 1 0.693965
1 1 0.654383
1 1 0.610468
1 1 0.583398
1 1 0.579919
1 1 0.589609
1 1 0.60087
1 1 0.605844
0.289021 1 0.788174
0.674098 1 0.774594
1 1 0.716777
1 1 0.656596
1 1 0.616403
1 1 0.601267
1 1 0.600214
1 1 0.601312
1 1 0.598856
0.368917 1 0.847456
0.757351 1 0.813504
1 1 0.743038
1 1 0.673136
1 1 0.625574
1 1 0.604608
1 1 0.598535
1 1 0.594675
1 1 0.58912
0 0 1
0.211536 0 1
0.684077 0 1
1 0 0.943358
1 0 0.894514
1 0 0.890974
1 0 0.928634
1 0 0.991272
1 0 1
0 0.164446 1
0.246815 0.17116 1
0.765896 0.136797 1
1 0.113802 1
1 0.118151 1
1 0.1561 1
1 0.213184 1
1 0.281178 1
1 0.349477 1
0 0.577859 1
0.256245 0.630869 1
0.816739 0.628351 1
1 0.618051 1
1 0.626657 1
1 0.666102 1
1 0.727855 1
1 0.797604 1
1 0.864424 1
0 1 0.990082
0.269673 1 1
0.836774 1 1
1 1 1
1 1 1
1 1 1
1 1 1
1 1 1
1 1 1
0 1 0.996384
0.311315 1 1
0.879469 1 1
1 1 1
1 1 1
1 1 1
1 1 1
1 1 1
1 1 1
0.0260166 1 1
0.412421 1 1
0.970245 1 1
1 1 1
1 1 1
1 1 1
1 1 1
1 1 1
1 1 1
0.158511 1 1
0.543511 1 1
1 1 1
1 1 1
1 1 1
1 1 1
1 1 1
1 1 1
1 1 1
0.276127 1 1
0.661311 1 1
1 1 1
1 1 1
1 1 1
1 1 1
1 1 1
1 1 1
1 1 1
0.35111 1 1
0.740337 1 1
1 1 1
1 1 1
1 1 1
1 1 1
1 1 1
1 1 1
1 1 1
0 0 1
0.191226 0 1
0.665797 0 1
1 0 1
1 0 1
1 0 1
1 0 1
1 0 1
1 0 1
0 0.147326 1
0.236713 0.158663 1
0.762341 0.129839 1
1 0.111269 1
1 0.118013 1
1 0.155444 1
1 0.213016 1
1 0.281773 1
1 0.350408 1
0 0.577478 1
0.25861 0.630884 1
0.818311 0.62681 1
1 0.617136 1
1 0.626444 1
1 0.666392 1
1 0.728222 1
1 0.797818 1
1 0.864317 1
0 1 1
0.272023 1 1
0.839704 1 1
1 1 1
1 1 1
1 1 1
1 1 1
1 1 1
1 1 1
0 1 1
0.313268 1 1
0.880888 1 1
1 1 1
1 1 1
1 1 1
1 1 1
1 1 1
1 1 1
0.024155 1 1
0.411414 1 1
0.967544 1 1
1 1 1
1 1 1
1 1 1
1 1 1
1 1 1
1 1 1
0.151553 1 1
0.536339 1 1
1 1 1
1 1 1
1 1 1
1 1 1
1 1 1
1 1 1
1 1 1
0.263355 1 1
0.648646 1 1
1 1 1
1 1 1
1 1 1
1 1 1
1 1 1
1 1 1
1 1 1
0.333562 1 1
0.723445 1 1
1 1 1
1 1 1
1 1 1
1 1 1
1 1 1
1 1 1
1 1 1
0 0 1
0.17821 0 1
0.655344 0 1
1 0 1
1 0 1
1 0 1
1 0 1
1 0 1
1 0 1
0 0.138094 1
0.234562 0.154055 1
0.766079 0.130205 1
1 0.116625 1
1 0.124941 1
1 0.160998 1
1 0.218692 1
1 0.287846 1
1 0.356664 1
0 0.583291 1
0.266667 0.637003 1
0.826795 0.632136 1
1 0.623362 1
1 0.633158 1
1 0.67332 1
1 0.735012 1
1 0.80383 1
1 0.869169 1
0 1 1
0.281041 1 1
0.849485 1 1
1 1 1
1 1 1
1 1 1
1 1 1
1 1 1
1 1 1
0 1 1
0.321187 1 1
0.888472 1 1
1 1 1
1 1 1
1 1 1
1 1 1
1 1 1
1 1 1
0.0286107 1 1
0.415854 1 1
0.969757 1 1
1 1 1
1 1 1
1 1 1
1 1 1
1 1 1
1 1 1
0.149874 1 1
0.534493 1 1
1 1 1
1 1 1
1 1 1
1 1 1
1 1 1
1 1 1
1 1 1
0.256046 1 1
0.641459 1 1
1 1 1
1 1 1
1 1 1
1 1 1
1 1 1
1 1 1
1 1 1
0.322072 1 1
0.7122 1 1
1 1 1
1 1 1
1 1 1
1 1 1
1 1 1
1 1 1
1 1 1
0 0 1
0.17261 0 1
0.652766 0 1
1 0 1
1 0 1
1 0 1
1 0 1
1 0 1
1 0 1
0 0.138079 1
0.241886 0.158953 1
0.779355 0.140826 1
1 0.129732 1
1 0.138674 1
1 0.173663 1
1 0.232746 1
1 0.30251 1
1 0.37145 1
0 0.598047 1
0.282887 0.651133 1
0.842527 0.644709 1
1 0.636622 1
1 0.646983 1
1 0.687358 1
1 0.748867 1
1 0.817487 1
1 0.882231 1
0 1 1
0.297658 1 1
0.866224 1 1
1 1 1
1 1 1
1 1 1
1 1 1
1 1 1
1 1 1
0 1 1
0.336828 1 1
0.902647 1 1
1 1 1
1 1 1
1 1 1
1 1 1
1 1 1
1 1 1
0.0402838 1 1
0.426749 1 1
0.979278 1 1
1 1 1
1 1 1
1 1 1
1 1 1
1 1 1
1 1 1
0.155184 1 1
0.539467 1 1
1 1 1
1 1 1
1 1 1
1 1 1
1 1 1
1 1 1
1 1 1
0.255985 1 1
0.641581 1 1
1 1 1
1 1 1
1 1 1
1 1 1
1 1 1
1 1 1
1 1 1
0.31783 1 1
0.709178 1 1
1 1 1
1 1 1
1 1 1
1 1 1
1 1 1
1 1 1
1 1 1
0 0 1
0.17319 0 1
0.65687 0 1
1 0 1
1 0 1
1 0 1
1 0 1
1 0 1
1 0 1
0 0.144793 1
0.256611 0.171191 1
0.799329 0.157427 1
1 0.149508 1
1 0.158114 1
1 0.192859 1
1 0.252201 1
1 0.322087 1
1 0.391089 1
0 0.617792 1
0.303441 0.669261 1
0.864607 0.663859 1
1 0.656367 1
1 0.667155 1
1 0.707668 1
1 0.768917 1
1 0.836637 1
1 0.89987 1
0 1 1
0.319661 1 1
0.888624 1 1
1 1 1
1 1 1
1 1 1
1 1 1
1 1 1
1 1 1
0 1 1
0.357519 1 1
0.923156 1 1
1 1 1
1 1 1
1 1 1
1 1 1
1 1 1
1 1 1
0.0564584 1 1
0.443442 1 1
0.993606 1 1
1 1 1
1 1 1
1 1 1
1 1 1
1 1 1
1 1 1
0.165057 1 1
0.550057 1 1
1 1 1
1 1 1
1 1 1
1 1 1
1 1 1
1 1 1
1 1 1
0.261112 1 1
0.647166 1 1
1 1 1
1 1 1
1 1 1
1 1 1
1 1 1
1 1 1
1 1 1
0.318746 1 1
0.710872 1 1
1 1 1
1 1 1
1 1 1
1 1 1
1 1 1
1 1 1
1 1 1
0 0 1
0.177478 0 1
0.664729 0 1
1 0 1
1 0 1
1 0 1
1 0 1
1 0 1
1 0 1
0 0.156008 1
0.275242 0.187991 1
0.823636 0.178332 1
1 0.171176 1
1 0.178592 1
1 0.214054 1
1 0.274434 1
1 0.344594 1
1 0.41355 1
0 0.640711 1
0.327047 0.690425 1
0.888411 0.685039 1
1 0.677928 1
1 0.689052 1
1 0.72961 1
1 0.790524 1
1 0.857984 1
1 0.920317 1
0 1 1
0.344808 1 1
0.913878 1 1
1 1 1
1 1 1
1 1 1
1 1 1
1 1 1
1 1 1
0 1 1
0.380591 1 1
0.945205 1 1
1 1 1
1 1 1
1 1 1
1 1 1
1 1 1
1 1 1
0.0752728 1 1
0.461982 1 1
1 1 1
1 1 1
1 1 1
1 1 1
1 1 1
1 1 1
1 1 1
0.177523 1 1
0.562615 1 1
1 1 1
1 1 1
1 1 1
1 1 1
1 1 1
1 1 1
1 1 1
0.268284 1 1
0.654459 1 1
1 1 1
1 1 1
1 1 1
1 1 1
1 1 1
1 1 1
1 1 1
0.321965 1 1
0.714855 1 1
1 1 1
1 1 1
1 1 1
1 1 1
1 1 1
1 1 1
1 1 1
