Project/Assets/Textures/Lut/lut_cool.cube
TITLE "Cooler Blue LUT"
LUT_3D_SIZE 9
0.000000 0.000000 0.000000
0.099348 0.000000 0.099348
0.286638 0.000000 0.286638
0.400000 0.000000 0.400000
0.400000 0.000000 0.400000
0.400000 0.000000 0.400000
0.400000 0.000000 0.400000
0.400000 0.000000 0.400000
0.400000 0.000000 0.400000
0.009855 0.157681 0.000000
0.114334 0.154519 0.104677
0.312222 0.114906 0.305040
0.405183 0.082924 0.400000
0.404767 0.076271 0.400000
0.406471 0.103542 0.400000
0.409508 0.152126 0.400000
0.412822 0.206414 0.430231
0.416157 0.263133 0.510909
0.028135 0.450166 0.000000
0.120128 0.484919 0.089821
0.343133 0.482234 0.312993
0.429775 0.476399 0.400000
0.430079 0.481258 0.400000
0.431981 0.511690 0.400000
0.435036 0.560568 0.400000
0.438546 0.619859 0.475038
0.441950 0.677803 0.558425
0.050000 0.800000 0.000000
0.144887 0.800000 0.094887
0.370659 0.800000 0.320659
0.450000 0.800000 0.400000
0.450000 0.800000 0.400000
0.450000 0.800000 0.400000
0.450000 0.800000 0.400000
0.450000 0.802181 0.452332
0.450000 0.805206 0.524954
0.050000 0.800000 0.000000
0.160921 0.800000 0.110921
0.388470 0.800000 0.338470
0.450000 0.800000 0.400000
0.450000 0.800000 0.400000
0.450000 0.800000 0.400000
0.450000 0.800000 0.400000
0.450000 0.800185 0.404450
0.450000 0.802303 0.455280
0.050739 0.800000 0.000739
0.205258 0.800000 0.155258
0.430004 0.800000 0.380004
0.450000 0.800000 0.400000
0.450000 0.800000 0.400000
0.450000 0.800000 0.400000
0.450000 0.800000 0.400000
0.450000 0.800000 0.400000
0.450000 0.800243 0.405841
0.110133 0.802014 0.108473
0.264408 0.802767 0.280821
0.450000 0.800982 0.423566
0.450000 0.800000 0.400000
0.450000 0.800000 0.400000
0.450000 0.800000 0.400000
0.450000 0.800000 0.400000
0.450000 0.800000 0.400000
0.450000 0.800000 0.400000
0.164003 0.807878 0.303081
0.318199 0.807445 0.446876
0.450000 0.804762 0.514296
0.450000 0.801936 0.446455
0.450000 0.800065 0.401556
0.450000 0.800000 0.400000
0.450000 0.800000 0.400000
0.450000 0.800000 0.400000
0.450000 0.800000 0.400000
0.199716 0.811435 0.424158
0.354906 0.809982 0.544484
0.450000 0.806571 0.557693
0.450000 0.803174 0.476173
0.450000 0.800890 0.421369
0.450000 0.800000 0.400000
0.450000 0.800000 0.400000
0.450000 0.800000 0.400000
0.450000 0.800000 0.400000
0.000000 0.009843 0.236228
0.099263 0.009277 0.321923
0.287077 0.005755 0.425196
0.400000 0.001933 0.446400
0.400000 0.000000 0.400000
0.400000 0.000000 0.400000
0.400000 0.000000 0.400000
0.400000 0.002541 0.460975
0.400000 0.005832 0.539968
0.009909 0.167334 0.210886
0.116881 0.166111 0.316704
0.317333 0.128115 0.466199
0.405856 0.098487 0.515120
0.405734 0.096446 0.512721
0.407543 0.127206 0.556612
0.410513 0.177705 0.628043
0.413830 0.234104 0.707769
0.417195 0.291329 0.788867
0.028925 0.466435 0.087233
0.130148 0.507181 0.244913
0.353874 0.505452 0.467682
0.430772 0.498015 0.535866
0.431102 0.503691 0.545242
0.433023 0.536397 0.592776
0.436092 0.588630 0.667740
0.439599 0.648299 0.752996
0.442986 0.705942 0.835907
0.050000 0.802523 0.060554
0.154250 0.805034 0.225064
0.380437 0.804903 0.448103
0.450000 0.804673 0.512154
0.450000 0.805322 0.527736
0.450000 0.807388 0.577304
0.450000 0.810388 0.649302
0.450000 0.813642 0.727416
0.450000 0.816622 0.798938
0.050000 0.802855 0.068519
0.170540 0.805275 0.247141
0.398052 0.805030 0.468776
0.450000 0.804583 0.509993
0.450000 0.804943 0.518636
0.450000 0.806582 0.557968
0.450000 0.808965 0.615171
0.450000 0.811378 0.673070
0.450000 0.813391 0.721373
0.059119 0.807004 0.177212
0.213705 0.808758 0.373894
0.437774 0.807911 0.577640
0.450000 0.806763 0.562307
0.450000 0.806352 0.552456
0.450000 0.807074 0.569778
0.450000 0.808504 0.604092
0.450000 0.809929 0.638297
0.450000 0.811028 0.664683
0.116200 0.813240 0.383948
0.270639 0.813896 0.554153
0.450000 0.812007 0.688157
0.450000 0.809926 0.638224
0.450000 0.808678 0.608267
0.450000 0.808602 0.606454
0.450000 0.809197 0.620718
0.450000 0.809821 0.635697
0.450000 0.810191 0.644578
0.167928 0.818809 0.569345
0.321989 0.818266 0.710368
0.450000 0.815488 0.771710
0.450000 0.812583 0.701982
0.450000 0.810655 0.655728
0.450000 0.809937 0.638481
0.450000 0.809966 0.639176
0.450000 0.810083 0.641996
0.450000 0.810019 0.640457
0.201711 0.822102 0.682158
0.356981 0.820536 0.799853
0.450000 0.817092 0.810218
0.450000 0.813659 0.727818
0.450000 0.811342 0.672209
0.450000 0.810328 0.647873
0.450000 0.810056 0.641337
0.450000 0.809907 0.637766
0.450000 0.809664 0.631943
0.000000 0.030606 0.734539
0.092946 0.029954 0.811846
0.281639 0.026451 0.916457
0.400000 0.022675 0.944198
0.400000 0.020041 0.880989
0.400000 0.019591 0.870185
0.400000 0.021168 0.908034
0.400000 0.024144 0.979446
0.400000 0.027501 1.000000
0.009184 0.176516 0.709855
0.113034 0.178542 0.816206
0.316175 0.144821 0.973483
0.405879 0.120297 1.000000
0.405934 0.121232 1.000000
0.407810 0.153115 1.000000
0.410738 0.202859 1.000000
0.414110 0.260161 1.000000
0.417504 0.317839 1.000000
0.029040 0.489805 0.603872
0.133163 0.532502 0.766350
0.357228 0.530988 0.989004
0.430963 0.522571 1.000000
0.431355 0.529266 1.000000
0.433320 0.562714 1.000000
0.436403 0.615158 1.000000
0.439915 0.674873 1.000000
0.443282 0.732139 1.000000
0.050000 0.824066 0.577578
0.157021 0.826567 0.744622
0.383739 0.826419 0.967788
0.450000 0.826177 1.000000
0.450000 0.826801 1.000000
0.450000 0.828808 1.000000
0.450000 0.831764 1.000000
0.450000 0.834913 1.000000
0.450000 0.837793 1.000000
0.050000 0.824387 0.585287
0.173641 0.826742 0.765454
0.401067 0.826423 0.985207
0.450000 0.825914 1.000000
0.450000 0.826194 1.000000
0.450000 0.827705 1.000000
0.450000 0.829957 1.000000
0.450000 0.832237 1.000000
0.450000 0.834162 1.000000
0.060938 0.828328 0.690800
0.215866 0.829993 0.885701
0.439172 0.828988 1.000000
0.450000 0.827726 1.000000
0.450000 0.827187 1.000000
0.450000 0.827829 1.000000
0.450000 0.829120 1.000000
0.450000 0.830446 1.000000
0.450000 0.831434 1.000000
0.116194 0.834228 0.887672
0.270273 0.834698 1.000000
0.450000 0.832719 1.000000
0.450000 0.830523 1.000000
0.450000 0.829170 1.000000
0.450000 0.828996 1.000000
0.450000 0.829480 1.000000
0.450000 0.830044 1.000000
0.450000 0.830292 1.000000
0.165608 0.839409 1.000000
0.319639 0.838730 1.000000
0.450000 0.835839 1.000000
0.450000 0.832830 1.000000
0.450000 0.830820 1.000000
0.450000 0.830063 1.000000
0.450000 0.830011 1.000000
0.450000 0.830066 1.000000
0.450000 0.829943 1.000000
0.197567 0.842373 1.000000
0.352940 0.840675 1.000000
0.450000 0.837152 1.000000
0.450000 0.833657 1.000000
0.450000 0.831279 1.000000
0.450000 0.830230 1.000000
0.450000 0.829927 1.000000
0.450000 0.829734 1.000000
0.450000 0.829456 1.000000
0.000000 0.050000 1.000000
0.084614 0.050000 1.000000
0.273631 0.050000 1.000000
0.400000 0.047168 1.000000
0.400000 0.044726 1.000000
0.400000 0.044549 1.000000
0.400000 0.046432 1.000000
0.400000 0.049564 1.000000
0.400000 0.050000 1.000000
0.008222 0.181557 1.000000
0.107284 0.186928 1.000000
0.313198 0.159438 1.000000
0.405690 0.141042 1.000000
0.405908 0.144521 1.000000
0.407805 0.174880 1.000000
0.410659 0.220547 1.000000
0.414059 0.274942 1.000000
0.417474 0.329582 1.000000
0.028893 0.512287 1.000000
0.134041 0.554695 1.000000
0.358113 0.552681 1.000000
0.430903 0.544441 1.000000
0.431333 0.551326 1.000000
0.433305 0.582882 1.000000
0.436393 0.632284 1.000000
0.439880 0.688083 1.000000
0.443221 0.741539 1.000000
0.050000 0.849504 1.000000
0.157869 0.850000 1.000000
0.384710 0.850000 1.000000
0.450000 0.850000 1.000000
0.450000 0.850000 1.000000
0.450000 0.850000 1.000000
0.450000 0.850000 1.000000
0.450000 0.850000 1.000000
0.450000 0.850000 1.000000
0.050000 0.849819 1.000000
0.174526 0.850000 1.000000
0.401788 0.850000 1.000000
0.450000 0.850000 1.000000
0.450000 0.850000 1.000000
0.450000 0.850000 1.000000
0.450000 0.850000 1.000000
0.450000 0.850000 1.000000
0.450000 0.850000 1.000000
0.060407 0.850000 1.000000
0.214968 0.850000 1.000000
0.438098 0.850000 1.000000
0.450000 0.850000 1.000000
0.450000 0.850000 1.000000
0.450000 0.850000 1.000000
0.450000 0.850000 1.000000
0.450000 0.850000 1.000000
0.450000 0.850000 1.000000
0.113404 0.850000 1.000000
0.267404 0.850000 1.000000
0.450000 0.850000 1.000000
0.450000 0.850000 1.000000
0.450000 0.850000 1.000000
0.450000 0.850000 1.000000
0.450000 0.850000 1.000000
0.450000 0.850000 1.000000
0.450000 0.850000 1.000000
0.160451 0.850000 1.000000
0.314524 0.850000 1.000000
0.450000 0.850000 1.000000
0.450000 0.850000 1.000000
0.450000 0.850000 1.000000
0.450000 0.850000 1.000000
0.450000 0.850000 1.000000
0.450000 0.850000 1.000000
0.450000 0.850000 1.000000
0.190444 0.850000 1.000000
0.346135 0.850000 1.000000
0.450000 0.850000 1.000000
0.450000 0.850000 1.000000
0.450000 0.850000 1.000000
0.450000 0.850000 1.000000
0.450000 0.850000 1.000000
0.450000 0.850000 1.000000
0.450000 0.850000 1.000000
0.000000 0.050000 1.000000
0.076490 0.050000 1.000000
0.266319 0.050000 1.000000
0.400000 0.050000 1.000000
0.400000 0.050000 1.000000
0.400000 0.050000 1.000000
0.400000 0.050000 1.000000
0.400000 0.050000 1.000000
0.400000 0.050000 1.000000
0.007366 0.167861 1.000000
0.102618 0.176930 1.000000
0.311428 0.153871 1.000000
0.405563 0.139015 1.000000
0.405901 0.144410 1.000000
0.407772 0.174355 1.000000
0.410651 0.220413 1.000000
0.414089 0.275418 1.000000
0.417520 0.330326 1.000000
0.028874 0.511982 1.000000
0.134988 0.554707 1.000000
0.358665 0.551448 1.000000
0.430857 0.543709 1.000000
0.431322 0.551155 1.000000
0.433320 0.583114 1.000000
0.436411 0.632578 1.000000
0.439891 0.688254 1.000000
0.443216 0.741454 1.000000
0.050000 0.850000 1.000000
0.158809 0.850000 1.000000
0.385882 0.850000 1.000000
0.450000 0.850000 1.000000
0.450000 0.850000 1.000000
0.450000 0.850000 1.000000
0.450000 0.850000 1.000000
0.450000 0.850000 1.000000
0.450000 0.850000 1.000000
0.050000 0.850000 1.000000
0.175307 0.850000 1.000000
0.402355 0.850000 1.000000
0.450000 0.850000 1.000000
0.450000 0.850000 1.000000
0.450000 0.850000 1.000000
0.450000 0.850000 1.000000
0.450000 0.850000 1.000000
0.450000 0.850000 1.000000
0.059662 0.850000 1.000000
0.214566 0.850000 1.000000
0.437018 0.850000 1.000000
0.450000 0.850000 1.000000
0.450000 0.850000 1.000000
0.450000 0.850000 1.000000
0.450000 0.850000 1.000000
0.450000 0.850000 1.000000
0.450000 0.850000 1.000000
0.110621 0.850000 1.000000
0.264536 0.850000 1.000000
0.450000 0.850000 1.000000
0.450000 0.850000 1.000000
0.450000 0.850000 1.000000
0.450000 0.850000 1.000000
0.450000 0.850000 1.000000
0.450000 0.850000 1.000000
0.450000 0.850000 1.000000
0.155342 0.850000 1.000000
0.309458 0.850000 1.000000
0.450000 0.850000 1.000000
0.450000 0.850000 1.000000
0.450000 0.850000 1.000000
0.450000 0.850000 1.000000
0.450000 0.850000 1.000000
0.450000 0.850000 1.000000
0.450000 0.850000 1.000000
0.183425 0.850000 1.000000
0.339378 0.850000 1.000000
0.450000 0.850000 1.000000
0.450000 0.850000 1.000000
0.450000 0.850000 1.000000
0.450000 0.850000 1.000000
0.450000 0.850000 1.000000
0.450000 0.850000 1.000000
0.450000 0.850000 1.000000
0.000000 0.050000 1.000000
0.071284 0.050000 1.000000
0.262138 0.050000 1.000000
0.400000 0.050000 1.000000
0.400000 0.050000 1.000000
0.400000 0.050000 1.000000
0.400000 0.050000 1.000000
0.400000 0.050000 1.000000
0.400000 0.050000 1.000000
0.006905 0.160475 1.000000
0.101528 0.173244 1.000000
0.312942 0.154164 1.000000
0.405831 0.143300 1.000000
0.406247 0.149953 1.000000
0.408050 0.178798 1.000000
0.410935 0.224954 1.000000
0.414392 0.280277 1.000000
0.417833 0.335331 1.000000
0.029165 0.516633 1.000000
0.138517 0.559602 1.000000
0.362325 0.555709 1.000000
0.431168 0.548690 1.000000
0.431658 0.556526 1.000000
0.433666 0.588656 1.000000
0.436751 0.638010 1.000000
0.440192 0.693064 1.000000
0.443458 0.745335 1.000000
0.050000 0.850000 1.000000
0.162416 0.850000 1.000000
0.389794 0.850000 1.000000
0.450000 0.850000 1.000000
0.450000 0.850000 1.000000
0.450000 0.850000 1.000000
0.450000 0.850000 1.000000
0.450000 0.850000 1.000000
0.450000 0.850000 1.000000
0.050000 0.850000 1.000000
0.178475 0.850000 1.000000
0.405389 0.850000 1.000000
0.450000 0.850000 1.000000
0.450000 0.850000 1.000000
0.450000 0.850000 1.000000
0.450000 0.850000 1.000000
0.450000 0.850000 1.000000
0.450000 0.850000 1.000000
0.061444 0.850000 1.000000
0.216342 0.850000 1.000000
0.437903 0.850000 1.000000
0.450000 0.850000 1.000000
0.450000 0.850000 1.000000
0.450000 0.850000 1.000000
0.450000 0.850000 1.000000
0.450000 0.850000 1.000000
0.450000 0.850000 1.000000
0.109950 0.850000 1.000000
0.263797 0.850000 1.000000
0.450000 0.850000 1.000000
0.450000 0.850000 1.000000
0.450000 0.850000 1.000000
0.450000 0.850000 1.000000
0.450000 0.850000 1.000000
0.450000 0.850000 1.000000
0.450000 0.850000 1.000000
0.152418 0.850000 1.000000
0.306584 0.850000 1.000000
0.450000 0.850000 1.000000
0.450000 0.850000 1.000000
0.450000 0.850000 1.000000
0.450000 0.850000 1.000000
0.450000 0.850000 1.000000
0.450000 0.850000 1.000000
0.450000 0.850000 1.000000
0.178829 0.850000 1.000000
0.334880 0.850000 1.000000
0.450000 0.850000 1.000000
0.450000 0.850000 1.000000
0.450000 0.850000 1.000000
0.450000 0.850000 1.000000
0.450000 0.850000 1.000000
0.450000 0.850000 1.000000
0.450000 0.850000 1.000000
0.000000 0.050000 1.000000
0.069044 0.050000 1.000000
0.261106 0.050000 1.000000
0.400000 0.050000 1.000000
0.400000 0.050000 1.000000
0.400000 0.050000 1.000000
0.400000 0.050000 1.000000
0.400000 0.050000 1.000000
0.400000 0.050000 1.000000
0.006904 0.160463 1.000000
0.104702 0.177162 1.000000
0.318783 0.162661 1.000000
0.406487 0.153786 1.000000
0.406934 0.160939 1.000000
0.408683 0.188930 1.000000
0.411637 0.236197 1.000000
0.415126 0.292008 1.000000
0.418573 0.347160 1.000000
0.029902 0.528438 1.000000
0.145711 0.570906 1.000000
0.369246 0.565767 1.000000
0.431831 0.559298 1.000000
0.432349 0.567586 1.000000
0.434368 0.599886 1.000000
0.437443 0.649094 1.000000
0.440874 0.703990 1.000000
0.444112 0.755785 1.000000
0.050000 0.850000 1.000000
0.169063 0.850000 1.000000
0.396490 0.850000 1.000000
0.450000 0.850000 1.000000
0.450000 0.850000 1.000000
0.450000 0.850000 1.000000
0.450000 0.850000 1.000000
0.450000 0.850000 1.000000
0.450000 0.850000 1.000000
0.050000 0.850000 1.000000
0.184731 0.850000 1.000000
0.411059 0.850000 1.000000
0.450000 0.850000 1.000000
0.450000 0.850000 1.000000
0.450000 0.850000 1.000000
0.450000 0.850000 1.000000
0.450000 0.850000 1.000000
0.450000 0.850000 1.000000
0.066114 0.850000 1.000000
0.220700 0.850000 1.000000
0.441711 0.850000 1.000000
0.450000 0.850000 1.000000
0.450000 0.850000 1.000000
0.450000 0.850000 1.000000
0.450000 0.850000 1.000000
0.450000 0.850000 1.000000
0.450000 0.850000 1.000000
0.112074 0.850000 1.000000
0.265787 0.850000 1.000000
0.450000 0.850000 1.000000
0.450000 0.850000 1.000000
0.450000 0.850000 1.000000
0.450000 0.850000 1.000000
0.450000 0.850000 1.000000
0.450000 0.850000 1.000000
0.450000 0.850000 1.000000
0.152394 0.850000 1.000000
0.306632 0.850000 1.000000
0.450000 0.850000 1.000000
0.450000 0.850000 1.000000
0.450000 0.850000 1.000000
0.450000 0.850000 1.000000
0.450000 0.850000 1.000000
0.450000 0.850000 1.000000
0.450000 0.850000 1.000000
0.177132 0.850000 1.000000
0.333671 0.850000 1.000000
0.450000 0.850000 1.000000
0.450000 0.850000 1.000000
0.450000 0.850000 1.000000
0.450000 0.850000 1.000000
0.450000 0.850000 1.000000
0.450000 0.850000 1.000000
0.450000 0.850000 1.000000
0.000000 0.050000 1.000000
0.069276 0.050000 1.000000
0.262748 0.050000 1.000000
0.400000 0.050000 1.000000
0.400000 0.050000 1.000000
0.400000 0.050000 1.000000
0.400000 0.050000 1.000000
0.400000 0.050000 1.000000
0.400000 0.050000 1.000000
0.007240 0.165834 1.000000
0.111204 0.186953 1.000000
0.327603 0.175942 1.000000
0.407475 0.169606 1.000000
0.407906 0.176491 1.000000
0.409643 0.204287 1.000000
0.412610 0.251761 1.000000
0.416104 0.307670 1.000000
0.419554 0.362871 1.000000
0.030890 0.544234 1.000000
0.154839 0.585409 1.000000
0.379036 0.581087 1.000000
0.432818 0.575094 1.000000
0.433358 0.583724 1.000000
0.435383 0.616134 1.000000
0.438446 0.665134 1.000000
0.441832 0.719310 1.000000
0.444994 0.769896 1.000000
0.050000 0.850000 1.000000
0.177864 0.850000 1.000000
0.405450 0.850000 1.000000
0.450000 0.850000 1.000000
0.450000 0.850000 1.000000
0.450000 0.850000 1.000000
0.450000 0.850000 1.000000
0.450000 0.850000 1.000000
0.450000 0.850000 1.000000
0.050000 0.850000 1.000000
0.193008 0.850000 1.000000
0.419262 0.850000 1.000000
0.450000 0.850000 1.000000
0.450000 0.850000 1.000000
0.450000 0.850000 1.000000
0.450000 0.850000 1.000000
0.450000 0.850000 1.000000
0.450000 0.850000 1.000000
0.072583 0.850000 1.000000
0.227377 0.850000 1.000000
0.447442 0.850000 1.000000
0.450000 0.850000 1.000000
0.450000 0.850000 1.000000
0.450000 0.850000 1.000000
0.450000 0.850000 1.000000
0.450000 0.850000 1.000000
0.450000 0.850000 1.000000
0.116023 0.850000 1.000000
0.270023 0.850000 1.000000
0.450000 0.850000 1.000000
0.450000 0.850000 1.000000
0.450000 0.850000 1.000000
0.450000 0.850000 1.000000
0.450000 0.850000 1.000000
0.450000 0.850000 1.000000
0.450000 0.850000 1.000000
0.154445 0.850000 1.000000
0.308866 0.850000 1.000000
0.450000 0.850000 1.000000
0.450000 0.850000 1.000000
0.450000 0.850000 1.000000
0.450000 0.850000 1.000000
0.450000 0.850000 1.000000
0.450000 0.850000 1.000000
0.450000 0.850000 1.000000
0.177498 0.850000 1.000000
0.334349 0.850000 1.000000
0.450000 0.850000 1.000000
0.450000 0.850000 1.000000
0.450000 0.850000 1.000000
0.450000 0.850000 1.000000
0.450000 0.850000 1.000000
0.450000 0.850000 1.000000
0.450000 0.850000 1.000000
0.000000 0.050000 1.000000
0.070991 0.050000 1.000000
0.265892 0.050000 1.000000
0.400000 0.050000 1.000000
0.400000 0.050000 1.000000
0.400000 0.050000 1.000000
0.400000 0.050000 1.000000
0.400000 0.050000 1.000000
0.400000 0.050000 1.000000
0.007800 0.174806 1.000000
0.119496 0.200393 1.000000
0.338371 0.192666 1.000000
0.408559 0.186941 1.000000
0.408930 0.192874 1.000000
0.410703 0.221243 1.000000
0.413722 0.269547 1.000000
0.417230 0.325675 1.000000
0.420678 0.380840 1.000000
0.032036 0.562569 1.000000
0.165340 0.602340 1.000000
0.389616 0.598031 1.000000
0.433896 0.592342 1.000000
0.434453 0.601242 1.000000
0.436481 0.633688 1.000000
0.439526 0.682419 1.000000
0.442899 0.736387 1.000000
0.446016 0.786254 1.000000
0.050000 0.850000 1.000000
0.187923 0.850000 1.000000
0.415551 0.850000 1.000000
0.450000 0.850000 1.000000
0.450000 0.850000 1.000000
0.450000 0.850000 1.000000
0.450000 0.850000 1.000000
0.450000 0.850000 1.000000
0.450000 0.850000 1.000000
0.050000 0.850000 1.000000
0.202236 0.850000 1.000000
0.428082 0.850000 1.000000
0.450000 0.850000 1.000000
0.450000 0.850000 1.000000
0.450000 0.850000 1.000000
0.450000 0.850000 1.000000
0.450000 0.850000 1.000000
0.450000 0.850000 1.000000
0.080109 0.850000 1.000000
0.234793 0.850000 1.000000
0.450000 0.850000 1.000000
0.450000 0.850000 1.000000
0.450000 0.850000 1.000000
0.450000 0.850000 1.000000
0.450000 0.850000 1.000000
0.450000 0.850000 1.000000
0.450000 0.850000 1.000000
0.121009 0.850000 1.000000
0.275046 0.850000 1.000000
0.450000 0.850000 1.000000
0.450000 0.850000 1.000000
0.450000 0.850000 1.000000
0.450000 0.850000 1.000000
0.450000 0.850000 1.000000
0.450000 0.850000 1.000000
0.450000 0.850000 1.000000
0.157314 0.850000 1.000000
0.311784 0.850000 1.000000
0.450000 0.850000 1.000000
0.450000 0.850000 1.000000
0.450000 0.850000 1.000000
0.450000 0.850000 1.000000
0.450000 0.850000 1.000000
0.450000 0.850000 1.000000
0.450000 0.850000 1.000000
0.178786 0.850000 1.000000
0.335942 0.850000 1.000000
0.450000 0.850000 1.000000
0.450000 0.850000 1.000000
0.450000 0.850000 1.000000
0.450000 0.850000 1.000000
0.450000 0.850000 1.000000
0.450000 0.850000 1.000000
0.450000 0.850000 1.000000
